X: 32779
T: Pony Trot Polka, The
R: barndance
M: 4/4
K: Gmajor
dg|e2 dg e2 dg|e2 d2- d2 G2|G2 GG A2 G2|E4- E2 AB|
cB AB c2 AB|cB AB c2 FE|D2 [Dd][Dd] [D2d2] e2|B2 d2- d2 dg|
e2 dg e2 dg|e2 d2- d2 G2|G2 GG A2 [G2B2]|E4- E2 AB|
cB AB c2 AB|cB AB c2 FE|D2 DD E2 FF|G2 DG F2 E/F/E|D4- D2||
GA|BA BA B2 DD|E2 E2- E2 A2|cd cd c2 A2|F2 FF F2 G2|
A2 F/G/F E2 D2|D2 c2 B2 A2|B2 G2 E2 D2|D2 D2- D2 GA|
BA BA B2 [DG]D|E2 E2- E2 AB|cd cd c2 A2|F3 F F2 G2|
A2 F/G/F E2 D2|[D2d2] c2 A/B/A F2|G4- G2||

